assets/icons/support-bubble.svg

<svg width="25" height="25" viewBox="0 0 25 25" fill="none" xmlns="http://www.w3.org/2000/svg">
<g id="support-bubble">
<path id="iconDefault" fill-rule="evenodd" clip-rule="evenodd" d="M0.335938 9.60736C0.335938 4.30136 4.6373 0 9.9433 0H15.0593C20.3653 0 24.6666 4.30136 24.6666 9.60736C24.6666 14.2751 21.3383 18.1644 16.9258 19.0334C16.6031 19.097 16.4508 19.3411 16.4746 19.534C16.642 20.8902 17.1572 22.1384 17.9288 23.1872C18.1845 23.5349 18.2226 23.9712 18.0815 24.3284C17.9358 24.6972 17.5862 24.9998 17.1019 24.9998C13.4082 24.9998 10.2468 22.7259 8.93916 19.5033C8.85151 19.2873 8.65602 19.1319 8.42954 19.0961C3.84264 18.3698 0.335938 14.3986 0.335938 9.60736ZM9.9433 1C5.18958 1 1.33594 4.85365 1.33594 9.60736C1.33594 13.899 4.47726 17.4578 8.58593 18.1084C9.16235 18.1997 9.64777 18.59 9.86578 19.1273C11.0256 21.9857 13.8291 23.9998 17.1019 23.9998C17.124 23.9998 17.1295 23.9944 17.1295 23.9944C17.1325 23.9922 17.1426 23.9833 17.1514 23.961C17.1707 23.9121 17.1676 23.8402 17.1232 23.7798C16.253 22.5968 15.6711 21.1876 15.4821 19.6565C15.3782 18.8149 16.0325 18.1902 16.7325 18.0523C20.6854 17.2738 23.6666 13.7882 23.6666 9.60736C23.6666 4.85365 19.813 1 15.0593 1H9.9433ZM10.3131 4.62165C9.79187 4.91123 9.53125 5.20659 9.53125 5.50775C9.53125 5.64674 9.57758 5.76257 9.67025 5.85523C9.76291 5.93631 9.86136 5.97685 9.96561 5.97685C10.0699 5.97685 10.1973 5.90736 10.3478 5.76836C10.4984 5.62937 10.7185 5.49037 11.0081 5.35138C11.3092 5.2008 11.6857 5.12551 12.1374 5.12551C12.8903 5.12551 13.4694 5.32242 13.8748 5.71624C14.2802 6.11006 14.4829 6.65445 14.4829 7.34943C14.4829 7.76641 14.3961 8.16023 14.2223 8.53088C14.0602 8.90154 13.8922 9.18532 13.7185 9.38223C13.5447 9.57914 13.2957 9.82817 12.9714 10.1293C12.6586 10.4189 12.4559 10.61 12.3633 10.7027C12.12 10.9807 11.9347 11.3339 11.8073 11.7625C11.6799 12.1795 11.6162 12.8339 11.6162 13.7258C11.6162 14.0617 11.7725 14.2297 12.0853 14.2297C12.398 14.2297 12.5544 14.0965 12.5544 13.8301C12.5544 13.0772 12.5891 12.5212 12.6586 12.1621C12.7281 11.8031 12.8961 11.4787 13.1625 11.1892C13.2436 11.0849 13.4463 10.8822 13.7706 10.5811C14.0949 10.2683 14.3613 9.99033 14.5698 9.74709C14.7899 9.50385 14.9926 9.15636 15.1779 8.70463C15.3748 8.24131 15.4733 7.76062 15.4733 7.26256C15.4733 6.35909 15.1837 5.61778 14.6046 5.03864C14.037 4.45949 13.232 4.16992 12.1895 4.16992C11.4714 4.16992 10.8459 4.3205 10.3131 4.62165ZM12.1324 16.9748C12.445 16.9748 12.6984 16.7214 12.6984 16.4088C12.6984 16.0962 12.445 15.8428 12.1324 15.8428C11.8198 15.8428 11.5664 16.0962 11.5664 16.4088C11.5664 16.7214 11.8198 16.9748 12.1324 16.9748Z" fill="#18303F"/>
</g>
</svg>

<svg width="25" height="25" viewBox="0 0 25 25" fill="none"><g id="support-bubble"><path id="iconDefault" fill-rule="evenodd" clip-rule="evenodd" d="M.336 9.607A9.607 9.607 0 0 1 9.943 0h5.116a9.607 9.607 0 0 1 9.608 9.607c0 4.668-3.329 8.557-7.741 9.426-.323.064-.475.308-.451.501a7.76 7.76 0 0 0 1.454 3.653c.256.348.294.784.152 1.141a1.04 1.04 0 0 1-.98.672 8.808 8.808 0 0 1-8.162-5.497.666.666 0 0 0-.51-.407C3.844 18.37.337 14.4.337 9.607ZM9.943 1a8.607 8.607 0 0 0-1.357 17.108 1.666 1.666 0 0 1 1.28 1.02A7.808 7.808 0 0 0 17.102 24c.022 0 .027-.006.027-.006a.076.076 0 0 0 .022-.033.194.194 0 0 0-.028-.181 8.761 8.761 0 0 1-1.64-4.123c-.105-.842.55-1.467 1.25-1.605A8.607 8.607 0 0 0 15.06 1H9.942Zm.37 3.622c-.521.29-.782.585-.782.886 0 .139.047.255.14.347a.442.442 0 0 0 .295.122c.104 0 .231-.07.382-.209.15-.139.37-.278.66-.417.301-.15.678-.225 1.13-.225.752 0 1.331.196 1.737.59.405.394.608.938.608 1.633 0 .417-.087.811-.26 1.182-.163.37-.33.654-.505.851-.173.197-.422.446-.747.747-.312.29-.515.481-.608.574-.243.278-.428.63-.556 1.06-.127.417-.19 1.07-.19 1.963 0 .336.155.504.468.504.313 0 .47-.133.47-.4 0-.753.034-1.309.104-1.668.07-.359.237-.683.503-.973.082-.104.284-.307.609-.608.324-.313.59-.59.799-.834.22-.243.423-.59.608-1.042.197-.464.295-.944.295-1.442 0-.904-.29-1.645-.868-2.224-.568-.58-1.373-.87-2.415-.87-.719 0-1.344.152-1.877.453Zm1.82 12.353a.566.566 0 1 0 0-1.132.566.566 0 0 0 0 1.132Z" fill="#18303F"/></g></svg>
